!!!SOCIAL_FUNCTION:	isleta
!!!PDT:	1957
!!!OTL: No_51_First_Song_of_Hunci_Dance.krn
!!!LING_GROUP: Keresan
!!!LANG: Tone
!!!REG: Southwest
**kern
*staff1
=1-
=
*clefF4
*k[b-]
*M3/4
8c\L
8A\J
4c\
4c\
=2
8c\L
8A\J
4c\
8c\L
[8d\J
=3
8d\L]
8d\J
8c\L
8A\J
4G\
=4
16G\LK
8.G\J
8.G\L
16G\Jk
8G\
8r
=5
16G\LK
8.G\J
16G\LK
8.G\J
4G\
=6
8.c\L
16A\Jk
8.c\L
16A\Jk
16F\LK
8.D\J
=7
8.A\L
16F\Jk
16G\LK
8.F\J
16D/LK
8.C/J
=8
4F\
8C/L
8C/J
8C/L
8F/J
=9
*M2/4
4C/
8C/
8r
=10
16C/LK
8.C/J
8C/L
8C/J
=11
8C/L
8C/J
8C/
8r
=12:|!
*M2/4
4F\
8C/L
8C/J
=13
8r
8C/
8C/L
8F/J
=14
4C/
8C/
8r
=15
16C/LK
8.C/J
8C/L
8C/J
=16
8C/L
8C/J
8C/
8r
=17
*M3/4
8G\L
[8G\J
8G\L]
8G\J
8G\L
8F\J
=18
*M2/4
8C/L
8C/J
8C/
8r
=19
*M3/4
8G\L
[8G\J
8G\L]
8G\J
8G\L
8F\J
=20
*M2/4
8C/L
8C/J
8C/
8r
=21
16F\LK
8.D\J
4C/
=22
*M3/4
4F\
8F\L
8D\J
8C/
8r
=23
*M2/4
16F\LK
8.D\J
4C/
=24
*M3/4
4F\
8F\L
8D\J
4C/
=25
4F\
8F\L
8D\J
8C/
8r
=26
*M2/4
8F\L
8D\J
8C/L
8F/J
=27
8C/L
8C/J
8C/
8r
==
*-
